X:1
T:Title
%%score { ( 1 4 ) | ( 2 3 ) }
L:1/8
M:4/4
K:E
V:1 treble nm="Grand Piano"
V:4 treble 
V:2 bass 
V:3 bass 
V:1
 z4 z2[Q:1/4=100] G>G | B2 A>A G2 [CFA]2 | [EG]4 [DF]2 [DF]>[EG] | [FA]2 [FA]2 [DB]2 [FA]2 | %4
 G6 G>G | [Ec]6 [FB]>[FB] | [Ge]6 [Ge]>[Ge] | d2 cd e2 ^A2 | [DFB]6 Bc | B6 z2 | B6 z2 | %11
 [FA]2 [FA]2 [DB]2 [FA]2 | G6 Bc | B6 z2 | B6 z2 | [Fd]2 [Fd]2 [Ac]2 [Ad]2 |[M:3/4] [Ge]6 |] %17
V:2
 z4 z2 [E,B,E]>[E,B,E] | [E,G,E]2 [E,CE]>[E,CE] [E,B,E]2 A,,2 | [B,,B,]4 [B,,B,]2 [B,,B,]>[B,,B,] | %3
 [B,,B,]2 [B,,B,]2 [B,,F,]2 [D,B,]2 | [E,B,E]6 [E,B,E]>[E,B,E] | [C,C]6 [D,B,]>[D,B,] | %6
 [E,B,]4 [C,C]2 [C,C]>[C,C] | [F,B,F]2 [F,F]-[F,B,F] [F,CF]2 [F,EF]2 | B,,6 [B,,A,]2 | E6 z2 | %10
 E6 z2 | [B,,B,]2 [B,,B,]2 [B,,F,]2 [D,B,]2 | [E,B,E]6 [F,A,D]2 | E6 z2 | E6 z2 | %15
 [B,,B,]2 [B,,B,]2 [B,,B,]2 [B,,B,]2 |[M:3/4] [E,B,]6 |] %17
V:3
 x8 | x8 | x8 | x8 | x8 | x8 | x8 | z2 .^A,2 z4 | x8 | [E,G,]2 F,2 G,2 [F,A,D]2 | %10
 [E,G,]2 F,2 G,2 [E,B,E]>[E,B,E] | x8 | x8 | [G,B,]2 F,2 E,2 [F,A,D]2 | %14
 [G,B,]2 F,2 E,2 [E,B,]>[E,B,] | x8 |[M:3/4] x6 |] %17
V:4
 x8 | x8 | x8 | x8 | x8 | x8 | x8 | x8 | z4 z2 D2 | z2 A,2 B,2 Bc | z2 A,2 B,2 G>G | x8 | x8 | %13
 z2 A,2 G,2 Bc | z2 A,2 G,2 [Ge]>[Ge] | x8 |[M:3/4] x6 |] %17

